X: 22877
T: Lark On The Strand, The
R: jig
M: 6/8
K: Gmajor
GED G2A|B3 ABd|edd gdd|edB dBA|
GED G2A|BdB A (3Bcd|edd gdB|1 AGF GBA:|2 AGF GBd||
gfg efg|afd edB|Add fdd|ed^c def|
gfg aga|bag fgf|edc B2A|BGF GBd:|

